icons/map-pin-two-color.svg

<?xml version="1.0" encoding="UTF-8"?><svg xmlns="http://www.w3.org/2000/svg" viewBox="0 0 50 50"><g id="uuid-6ae8527f-d927-40a8-92da-a9ca93b0e7a5"><g><path d="M38.01,8.04c-2.87-3.28-7.07-5.37-11.76-5.37-8.61,0-15.62,7.01-15.62,15.62,0,3.49,3.14,9.44,3.18,9.5l12.45,22.02,.33-.58,12.13-21.46s3.17-5.99,3.17-9.49c0-3.93-1.47-7.51-3.87-10.26Zm-13.26,19.93c-6.13,0-11.18-5.05-11.18-11.18,0-6.93,6.45-11.18,11.18-11.18,1.44,0,2.81,.28,4.07,.78,4.15,1.63,7.1,5.67,7.1,10.4,0,5.68-4.78,11.18-11.18,11.18Z" fill="#ffcd00"/><path d="M40.89,12.9C39.14,5.61,32.57,.17,24.75,.17,15.58,.17,8.13,7.63,8.13,16.79c0,3.74,3.16,9.72,3.3,9.98l12.89,22.8c.09,.16,.25,.25,.44,.25s.35-.1,.44-.25l.47-.82,12.43-21.99c.13-.25,3.29-6.23,3.29-9.97,0-1.34-.18-2.64-.48-3.89Zm-3.69,13.38l-12.13,21.46-.33,.58L12.3,26.29c-.03-.06-3.18-6.01-3.18-9.5,0-8.61,7.01-15.62,15.62-15.62,4.69,0,8.89,2.09,11.76,5.37,2.4,2.75,3.87,6.33,3.87,10.26,0,3.49-3.14,9.44-3.17,9.49Z"/><path d="M24.75,4.62c-6.71,0-12.18,5.46-12.18,12.18,0,3.74,1.7,7.08,4.36,9.32,2.12,1.78,4.84,2.86,7.82,2.86,6.71,0,12.18-5.46,12.18-12.18,0-2.98-1.08-5.7-2.86-7.82-2.24-2.66-5.58-4.36-9.32-4.36Zm0,23.35c-6.13,0-11.18-5.05-11.18-11.18,0-6.93,6.45-11.18,11.18-11.18,1.44,0,2.81,.28,4.07,.78,4.15,1.63,7.1,5.67,7.1,10.4,0,5.68-4.78,11.18-11.18,11.18Z"/></g></g><g id="uuid-b5d3e428-1864-4e98-91fe-3e5b34807a36"><text transform="translate(0 55.13)" font-family="Roboto-Regular, Roboto" font-size="6"><tspan x="0" y="0">map-pin</tspan></text></g></svg>

<svg xmlns="http://www.w3.org/2000/svg" viewBox="0 0 50 50"><g id="a7417170-7c96-4bbf-9b13-3f6a515820c7" data-name="ICONS"><path d="M38,8A15.6,15.6,0,0,0,10.63,18.29c0,3.5,3.14,9.44,3.17,9.5l12.45,22,.33-.57L38.7,27.78c0-.05,3.17-6,3.17-9.49A15.52,15.52,0,0,0,38,8ZM24.75,28A11.24,11.24,0,0,1,13.57,16.79C13.57,9.86,20,5.62,24.75,5.62a11,11,0,0,1,4.07.78,11.19,11.19,0,0,1,7.11,10.39A11.35,11.35,0,0,1,24.75,28Z" fill="#fdd600"/><path d="M40.89,12.9A16.61,16.61,0,0,0,8.13,16.79c0,3.75,3.16,9.72,3.3,10L24.31,49.58a.51.51,0,0,0,.88,0l.46-.83,12.43-22c.13-.25,3.29-6.22,3.29-10A16.13,16.13,0,0,0,40.89,12.9ZM37.2,26.28,25.08,47.74l-.33.57-12.45-22c0-.06-3.17-6-3.17-9.5a15.62,15.62,0,0,1,31.24,0C40.37,20.29,37.23,26.23,37.2,26.28Z" fill="#231f20"/><path d="M24.75,4.62A12.2,12.2,0,1,0,34.07,9,12.19,12.19,0,0,0,24.75,4.62Zm0,23.35A11.24,11.24,0,0,1,13.57,16.79C13.57,9.86,20,5.62,24.75,5.62a11,11,0,0,1,4.07.78,11.19,11.19,0,0,1,7.11,10.39A11.35,11.35,0,0,1,24.75,28Z" fill="#231f20"/></g><g id="e14edf6a-28e7-43c8-aaa6-88baba7b529b" data-name="LABELS"><text transform="translate(0 55.13)" font-size="6" fill="#231f20" font-family="Roboto-Regular, Roboto">map-pin</text></g></svg>
